X:5746
T:Sailors Topsail
O:england
R:Reel
M:C|
A:Westmorland
N:P20 2/3
K:D
AFAF ABcA|GEGE GABG| AFAF Adef|gfed Add2:|
|:efge edcd|eaag fedf|efgf edcd|fdec Add2:|


